X: 38833
T: Summer Salsa
R: reel
M: 4/4
K: Aminor
A2|e4- e4-|e4- e4|e2e2 e2ef|e2d2 c2B2|
d4- d4-|d4- d4|d2e2 d2de|d2c2 B2A2|
d4- d4-|d4- d4|d2d2 d2de|d2c2 B2A2|
e4- e4-|e4- e4|e2e2 e2ef|e2d2 c2B2|
e4- e4-|e4- e4|e2e2 e2f2|g2a2 a4-|
a4- a4-|a4- a4|a2a2 a2g2|f2e2 d2^c2-|
^c2e2 e2f2|e2d2 c2B2-|B2d2 d2e2|d2c2 B2A2-|
A2e2 e2f2|e2d2 c4|A4- A4|

